public/formular-icons/greece/lower-gamma.svg

<svg style="vertical-align:-.489ex" xmlns="http://www.w3.org/2000/svg" width="1.229ex" height="1.486ex" viewBox="0 -441 543 657" xmlns:xlink="http://www.w3.org/1999/xlink"><defs><path id="a" d="M31 249q-20 0-20 9 0 17 15 46t40 61 63 53 77 23q27 0 33-1 48-11 79-54t53-131q14-60 14-85 0-4 1-4l12 27q20 51 45 107t43 91 22 39q2 1 16 1h13q6-6 6-9 0-4-21-44t-59-127-72-180q-6-16-13-65t-21-106q-16-65-27-90t-27-26q-17 0-17 28 0 50 54 220l6 19 1 18q1 10 1 31 0 157-57 217-40 38-95 38-48 0-88-26t-57-69q-2-9-4-9-2-2-16-2Z"/></defs><g stroke="currentColor" fill="currentColor" stroke-width="0"><use data-c="1D6FE" xlink:href="#a" transform="scale(1 -1)"/></g></svg>

<svg style="vertical-align: -0.489ex" xmlns="http://www.w3.org/2000/svg" width="1.229ex" height="1.486ex" role="img" focusable="false" viewBox="0 -441 543 657" xmlns:xlink="http://www.w3.org/1999/xlink"><defs><path id="MJX-88-TEX-I-1D6FE" d="M31 249Q11 249 11 258Q11 275 26 304T66 365T129 418T206 441Q233 441 239 440Q287 429 318 386T371 255Q385 195 385 170Q385 166 386 166L398 193Q418 244 443 300T486 391T508 430Q510 431 524 431H537Q543 425 543 422Q543 418 522 378T463 251T391 71Q385 55 378 6T357 -100Q341 -165 330 -190T303 -216Q286 -216 286 -188Q286 -138 340 32L346 51L347 69Q348 79 348 100Q348 257 291 317Q251 355 196 355Q148 355 108 329T51 260Q49 251 47 251Q45 249 31 249Z"></path></defs><g stroke="currentColor" fill="currentColor" stroke-width="0" transform="scale(1,-1)"><g data-mml-node="math"><g data-mml-node="mi"><use data-c="1D6FE" xlink:href="#MJX-88-TEX-I-1D6FE"></use></g></g></g></svg>
